X:16419
T:The 16th of October
M:2/4
L:1/16
S:Armitt MS
K:D Major
d4 fede|f2d2d2c2|B4efed|c2A2A2c2|d4fede|f2d2d2c2|B2e2{d}c2Bc|d4D4:||:AG|
F2A2A2G2|F2A2A2G2|F2A2d2f2|d2cB A2G2||F2A2A2G2|F2A2A2c2|d2f2 gfed|a4"D.C
."A4:|
|
